packages/kaspersky-hexa-ui-icons/src/iconsSVGs/24/HealthMonitor.svg

<svg width="24" height="24" viewBox="0 0 24 24" fill="none" xmlns="http://www.w3.org/2000/svg">
<path d="M6 3C4.34315 3 3 4.34315 3 6V8C3 8.55228 3.44772 9 4 9C4.55228 9 5 8.55228 5 8V6C5 5.44772 5.44772 5 6 5H18C18.5523 5 19 5.44772 19 6V8C19 8.55228 19.4477 9 20 9C20.5523 9 21 8.55228 21 8V6C21 4.34315 19.6569 3 18 3H6Z" fill="black"/>
<path d="M5 16C5 15.4477 4.55228 15 4 15C3.44772 15 3 15.4477 3 16V18C3 19.6569 4.34315 21 6 21H18C19.6569 21 21 19.6569 21 18V16C21 15.4477 20.5523 15 20 15C19.4477 15 19 15.4477 19 16V18C19 18.5523 18.5523 19 18 19H6C5.44772 19 5 18.5523 5 18V16Z" fill="black"/>
<path d="M14.8944 7.55279C14.725 7.214 14.3788 7 14 7C13.6212 7 13.275 7.214 13.1056 7.55279L10 13.7639L8.89443 11.5528C8.72504 11.214 8.37877 11 8 11H3C2.44772 11 2 11.4477 2 12C2 12.5523 2.44772 13 3 13H7.38197L9.10557 16.4472C9.27496 16.786 9.62123 17 10 17C10.3788 17 10.725 16.786 10.8944 16.4472L14 10.2361L15.1056 12.4472C15.275 12.786 15.6212 13 16 13H21C21.5523 13 22 12.5523 22 12C22 11.4477 21.5523 11 21 11H16.618L14.8944 7.55279Z" fill="black"/>
</svg>

<svg xmlns="http://www.w3.org/2000/svg" width="24" height="24" fill="none" viewBox="0 0 24 24"><path fill="#000" fill-rule="evenodd" d="M6 3C4.3431 3 3 4.3431 3 6v2c0 .5523.4477 1 1 1s1-.4477 1-1V6c0-.5523.4477-1 1-1h12c.5523 0 1 .4477 1 1v2c0 .5523.4477 1 1 1s1-.4477 1-1V6c0-1.6569-1.3431-3-3-3zm8 4a1 1 0 0 1 .8944.5528L16.618 11H21c.5523 0 1 .4477 1 1s-.4477 1-1 1h-5a1 1 0 0 1-.8944-.5528L14 10.2361l-3.1056 6.2111a1 1 0 0 1-1.7888 0L7.382 13H3c-.5523 0-1-.4477-1-1s.4477-1 1-1h5a1 1 0 0 1 .8944.5528L10 13.7639l3.1056-6.2111A1 1 0 0 1 14 7m-9 9c0-.5523-.4477-1-1-1s-1 .4477-1 1v2c0 1.6569 1.3431 3 3 3h12c1.6569 0 3-1.3431 3-3v-2c0-.5523-.4477-1-1-1s-1 .4477-1 1v2c0 .5523-.4477 1-1 1H6c-.5523 0-1-.4477-1-1z"/></svg>
